X:120
T:Blaw the Wind Southerly
Z:Jack Campin, http://www.campin.me.uk/
S:Northumbrian Minstrelsy
M:3/4
L:1/8
K:D
A|fed AFA|BGB AFA|fed AFA|Bdc  d2:|
a|f2a e2a|dcd cBA|f2a e2a|ba^g a2
a|b2b a2a|g2g fed|fed Bgf|eBc  d2:|

